FINK
CUT[FREUDE SCHOENER GOETTERFUNKEN]
REG[Europa, Mitteleuropa, Deutschland]
KEY[F0759  08  C 4/4]
MEL[1_-5_  3_.3342-7  1_-5_
    5_.4  43214_3_  2__
    1_-5_  3_.3542-7  1_-5_
    5_.4  43214_3_  2__
    2_.1  -754#32_.1  1_-7_
    3_.2  21-7-62_.-4#  -5__
    -6_-7_  1_2_3_.4  3_2_
    4_.3  2_1_24-5-7  1__
    1_.-5  3_.3342-7  1_-5_
    5_.4  43214_3_  2__
    6_.5  4_1_4_5_  6__
    5_.4  432124-5-7  1_-1_ //] >>
FCT[Geselligkeits -, Bundes - Lied]
